X:1570
T:the Sailor Laddie
A:Wyresdale, Lancashire
B:E and J Winder, 1835-41
L:1/8
M:6/8
O:England
Z:Richard Robinson 
%%TUNEURL: http://www.leeds.ac.uk/music/Info/RRTuneBk/gettune/00001250.html
%%ID:00001250
K:G
D | G2g dBG | EAA A2B | G2g dBG | Bde g2\
a | bag ede | aAA A2B | def gdc | BGG G2 ::
(g/a/) | bag ede | aAA A2(g/a/) | bag efe | def gd\
B      | c2a B2g | aAA A2B      | G2g ded | BGG G2 :|
